X: 3152
T: Beauty Spot, The
R: reel
M: 4/4
K: Dmixolydian
|(3.A.c.A GB {d}A2 dB|{d}cB{d}cG EGGG|(3.A.c.A FB {d}A2dB|{d}cB{d}cG ED (3DDD|
~A3d d^cAB|{d}cB{d}cG EGGG|~A3d A{d}B{A}Bd|{d}cB{d}cG ED (3DDD||
{f}ed (3.d.^c.d edcd|ed .d/.^c/.d efg2|{f}e.d .d/.^c/.d ed=cB|GAcd vedd2|
{f}ed (3.B.^c.d edcd|ed (3.B.^c.d efge|f{a}ge.d .dcAG|GAcd (3.e.f.e d^c||

